X: 26
M: C
L: 1/8
K: D
{de}f2 (Te>d) | d2 (D>E) F2 (TED) | G3 A (B>cd) F |
E8 |][| D3 F A3 B | A F E> F
(A>B) (d>e) f2 (Te>d) | (dc) (BA) {G}F2 (TED) |
